X: 282
T:Bourre
M:4/4
L:1/4
Q:1/2=110
C:Michael Praetorius
R:bourree
O:France
H:XVI eme siecle
Z:S. Piron
K:F
B|G2GA/2B/2|cFFB/2A/2|G/2F/2G/2A/2 G/2A/2B/2c/2|dDDB|
G2GA/2B/2|cFFB/2A/2|G/2F/2G/2A/2 G/2A/2B/2c/2|dDDB|
B3d|B3d|B/2c/2dB/2c/2d|cAAc|A/2B/2cA/2B/2c|BGGB/2A/2|G^F G/2A/2B/2G/2|AD
DB|
B3d|B3d|B/2c/2dB/2c/2d|cAAc|A/2B/2cA/2B/2c|BGGB/2A/2|G^F G/2A/2B/2G/2|AD
D2||
W:
W: From "Falaleiro" http://home.t-online.de/home/pheld/homepage.htm
